X:22
T:Miko Doyle's
T:Old Favourite, The
R:slide
H:Played in G or in A
D:Sean Ryan: Siuil Uait
Z:id:hn-slide-22
M:6/8
K:G
~B3 BAB|dBA G2d|ded ded|ded B2A|
~B3 BAB|dBA G2d|dge dBA|1 GAG G2A:|2 GAG GBd||
|:~g3 fgf|efe d2B|ded ded|ded B2d|
~g3 fgf|efe d2B|1 dge dBA|GAG GBd:|2 dge dge|dge dBA||
